!!!COM: Anonymous
!!!CDT: [?]
!!!OTL@@POL: Najwyższe dobro moje
!!!TXO: Polish
!!!ODT: 
!!!GTL: Hymnbook E
!!!ARL: Opactwo św. Wojciecha, Staniątki 
!!!voices:	2
**kern	**kern	**text
*staff2	*staff1	*staff1
*I"Basso	*I"Canto I	*
=1-	=1-	=1-
*clefF4	*clefG2	*
*k[b-e-]	*k[b-e-]	*
*M3/2	*M3/2	*
2C	2cc	Naj-
2E-	2cc	-wyż-
2C	2ee-	-sze
=2	=2	=2
1G	1dd	dob-
2A-	2cc	-ro
=3	=3	=3
1G	1bn	mo-
2G	2g	-je
=4	=4	=4
2.A-	2.cc	Je-
4E-	4b-	-den
2F	2a-	w~Tr&oacute;j-
=5	=5	=5
4G	2g	-cy
4A-	.	.
2B-	1f	Bo-
2BB-	.	.
=6	=6	=6
1.E-	1.e-	-że
=7	=7	=7
2E-	2g	mi-
2BB-	2f	-łu-
2E-	2e-	-ję
=8	=8	=8
1F	4a-	Cię
.	4g	.
.	4a-	nad
.	4b-	.
2BB-	4cc	.
.	8b-L	.
.	8a-J	.
=9	=9	=9
1C	1g	wszyt-
2C	2g	-ko
=10	=10	=10
2.G	2.bn	co
4G	4b	myśl
4A	2cc	po-
4G	.	.
=11	=11	=11
2F	2ee-	-jąć
2G	1dd	mo-
2GG	.	.
=12	=12	=12
1.C	1.cc	-że
=13||	=13||	=13||
2c	2ee-	Ko-
2Bn	2dd	-cham
2A-	2cc	Cię
=14	=14	=14
1G	2.dd	nie
.	4ee-	.
2F#	4dd	dla
.	4cc	.
=15	=15	=15
1G	1bn	nie-
2G	2b	-ba
=16	=16	=16
2.C	2.ee-	lub
4D	4dd	szczę-
2E-	2cc	-ścia
=17	=17	=17
2C	2b-	mo-
1D	1a	-je-
=18	=18	=18
1GG	1g	-go
2E-	2g	lecz
=19	=19	=19
1F	1a-	dla
2BB-	2f	sa-
=20	=20	=20
4E-	1g	-mej
4F	.	.
4G	.	.
4A-	.	.
4B-	2f	do-
4BB-	.	.
=21	=21	=21
1E-	1e-	-bro-
2E-	2e-	-ci
=22	=22	=22
2.G	2.gg	Cie-
4G	4bn	-bie
2A-	4cc	Bo-
.	4dd	.
=23	=23	=23
2F	2ee-	-ga
!	!LO:TX:Y=11:t=[  ]	!
2G	1dd	[me-
2GG	.	.
=24	=24	=24
!LO:TX:Y=30:t=[  ]	!LO:TX:Y=17:t=[  ]	!
1.C	1.cc	-go].
==	==	==
*-	*-	*-
!!!GTL: Hymnbook E
!!!EFL: 85/117
!!!YEM: Creative Commons CC/BY/NC/SA 4.0
!!!ENC: Marcin Konik
!!!END: 
!!!EED: Marcin Konik
!!!EEV: 
!!!ONB: Translated from MusicXML and edited by Marcin Konik
!!!CharacterEncoding: utf-8
!!!RDF**kern: l=long note in original notation
!!!RDF**kern: i=editorial accidental
!!muse2ps: z14jc180F
